fa/svgs/regular/face-smile-beam.svg

<svg xmlns="http://www.w3.org/2000/svg" viewBox="0 0 512 512"><!--! Font Awesome Free 6.1.1 by @fontawesome - https://fontawesome.com License - https://fontawesome.com/license/free (Icons: CC BY 4.0, Fonts: SIL OFL 1.1, Code: MIT License) Copyright 2022 Fonticons, Inc.--><path d="M256 352c37.2 0 63.2-17.5 78.4-33.9 8.9-9.7 24.1-10.4 33.9-1.4 9.7 9 10.3 24.2 1.3 33.9C347.7 374.5 309.7 400 256 400c-53.7 0-91.7-25.5-113.6-49.4-9-9.7-9.3-24.9 1.3-33.9 9.8-9 25-8.3 33.9 1.4 15.2 16.4 41.2 33.9 78.4 33.9zm-38.4-123.2-.2-.3c-.2-.2-.4-.5-.7-.9-.7-.8-1.6-1.9-2.8-3.3-2.5-2.9-6-6.6-10.2-11.2-8.8-6.9-18.9-13.1-27.7-13.1s-18.9 6.2-27.7 13.1c-4.2 4.6-7.7 8.3-10.2 11.2-1.2 1.4-3 2.5-2.8 3.3-1.2.4-.5.7-.7.9l-.2.3c-2.1 2.8-5.7 3.9-8.9 2.8-3.3-1.1-5.5-4.2-5.5-7.6 0-17.9 6.7-35.6 16.6-48.8 9.8-13 23.9-23.2 39.4-23.2s29.6 10.2 39.4 23.2c9.9 13.2 16.6 30.9 16.6 48.8 0 3.4-2.2 6.5-5.5 7.6-3.2 1.1-6.8 0-8.9-2.8zm160 0-.2-.3c-.2-.2-.4-.5-.7-.9-.7-.8-1.6-1.9-2.8-3.3-2.5-2.9-6-6.6-10.2-11.2-8.8-6.9-18.9-13.1-27.7-13.1s-18.9 6.2-27.7 13.1c-4.2 4.6-7.7 8.3-10.2 11.2-1.2 1.4-3 2.5-2.8 3.3-1.2.4-.5.7-.7.9l-.2.3c-2.1 2.8-5.7 3.9-8.9 2.8-3.3-1.1-5.5-4.2-5.5-7.6 0-17.9 6.7-35.6 16.6-48.8 9.8-13 23.9-23.2 39.4-23.2s29.6 10.2 39.4 23.2c9.9 13.2 16.6 30.9 16.6 48.8 0 3.4-2.2 6.5-5.5 7.6-3.2 1.1-6.8 0-8.9-2.8zM512 256c0 141.4-114.6 256-256 256S0 397.4 0 256 114.6 0 256 0s256 114.6 256 256zM256 48C141.1 48 48 141.1 48 256s93.1 208 208 208 208-93.1 208-208S370.9 48 256 48z"/></svg>

<svg xmlns="http://www.w3.org/2000/svg" viewBox="0 0 512 512"><!--! Font Awesome Free 6.2.1 by @fontawesome - https://fontawesome.com License - https://fontawesome.com/license/free (Icons: CC BY 4.0, Fonts: SIL OFL 1.1, Code: MIT License) Copyright 2022 Fonticons, Inc. --><path d="M256 352C293.2 352 319.2 334.5 334.4 318.1C343.3 308.4 358.5 307.7 368.3 316.7C378 325.7 378.6 340.9 369.6 350.6C347.7 374.5 309.7 400 256 400C202.3 400 164.3 374.5 142.4 350.6C133.4 340.9 133.1 325.7 143.7 316.7C153.5 307.7 168.7 308.4 177.6 318.1C192.8 334.5 218.8 352 256 352zM217.6 228.8L217.6 228.8L217.4 228.5C217.2 228.3 217 228 216.7 227.6C216 226.8 215.1 225.7 213.9 224.3C211.4 221.4 207.9 217.7 203.7 213.1C194.9 206.2 184.8 200 176 200C167.2 200 157.1 206.2 148.3 213.1C144.1 217.7 140.6 221.4 138.1 224.3C136.9 225.7 135.1 226.8 135.3 227.6C134.1 228 134.8 228.3 134.6 228.5L134.4 228.8L134.4 228.8C132.3 231.6 128.7 232.7 125.5 231.6C122.2 230.5 120 227.4 120 224C120 206.1 126.7 188.4 136.6 175.2C146.4 162.2 160.5 152 176 152C191.5 152 205.6 162.2 215.4 175.2C225.3 188.4 232 206.1 232 224C232 227.4 229.8 230.5 226.5 231.6C223.3 232.7 219.7 231.6 217.6 228.8V228.8zM377.6 228.8L377.4 228.5C377.2 228.3 377 228 376.7 227.6C376 226.8 375.1 225.7 373.9 224.3C371.4 221.4 367.9 217.7 363.7 213.1C354.9 206.2 344.8 200 336 200C327.2 200 317.1 206.2 308.3 213.1C304.1 217.7 300.6 221.4 298.1 224.3C296.9 225.7 295.1 226.8 295.3 227.6C294.1 228 294.8 228.3 294.6 228.5L294.4 228.8L294.4 228.8C292.3 231.6 288.7 232.7 285.5 231.6C282.2 230.5 280 227.4 280 224C280 206.1 286.7 188.4 296.6 175.2C306.4 162.2 320.5 152 336 152C351.5 152 365.6 162.2 375.4 175.2C385.3 188.4 392 206.1 392 224C392 227.4 389.8 230.5 386.5 231.6C383.3 232.7 379.7 231.6 377.6 228.8L377.6 228.8zM512 256C512 397.4 397.4 512 256 512C114.6 512 0 397.4 0 256C0 114.6 114.6 0 256 0C397.4 0 512 114.6 512 256zM256 48C141.1 48 48 141.1 48 256C48 370.9 141.1 464 256 464C370.9 464 464 370.9 464 256C464 141.1 370.9 48 256 48z"/></svg>
